src/topics/icons/base.svg

<svg height="174" preserveAspectRatio="xMidYMid" viewBox="0 0 256 174" width="256" xmlns="http://www.w3.org/2000/svg"><path d="m233.19048 173.952855h-91.977907c-9.995254 0-18.399434-6.460605-21.498752-15.402206-.208034-.570167-.381396-1.149965-.539347-1.735541.019262.069344.034672.130984.034672.130984-.001926 0-.013484-.048156-.048156-.175288-.028894-.109795-.038525-.150246-.038525-.150246.001926 0 .017336.063566.036599.130984-.882218-3.446041-1.011276-6.884378-.28701-10.376649.85525-4.513178 2.864317-9.163118 6.092694-13.695558l48.955361-68.857262-26.245005-36.7507117c-2.469438-3.46723-5.422362-5.378059-8.313647-5.378059-2.891284 0-5.844209 1.910829-8.313647 5.3799853l-104.406 146.8795674h-26.64181l.09823818-.171435 113.23973182-159.3115135c6.293022-8.83373152 15.259664-14.04420771 24.761801-14.4699065h2.521446c9.504063.42569879 18.468779 5.63424874 24.757949 14.4622016l21.82236 30.625272 32.102698-45.0874736h26.643736c-.33324 1.0305378-45.414934 63.822073-45.414934 63.822073l48.905279 68.857262c3.228376 4.53244 5.237443 9.18238 6.092693 13.695558.724266 3.492271.595208 6.930608-.287009 10.376649.019262-.067418.034672-.130984.036598-.130984 0 0-.009631.040451-.038525.150246-.034672.127132-.046229.175288-.046229.175288-.001927 0 .01541-.06164.032746-.130984-.157952.585576-.331313 1.165374-.539347 1.735541-3.099319 8.941601-11.503499 15.402206-21.498752 15.402206m-4.942729-22.01691.042377.009631c2.398167 0 4.341742-1.943575 4.341742-4.341743 0-.899553-.273526-1.735541-.741602-2.427061-.059713-.088607-44.216813-61.9728833-44.688742-62.6355095-.471928.6626262-44.629029 62.5469025-44.688742 62.6355095-.468076.69152-.741602 1.527508-.741602 2.427061 0 2.398168 1.943575 4.341743 4.341743 4.341743l.042377-.009631.040451.009631h82.011547z" fill="#32dac4"/></svg>

<?xml version="1.0" encoding="UTF-8" standalone="no"?>
<svg width="256px" height="174px" viewBox="0 0 256 174" version="1.1" xmlns="http://www.w3.org/2000/svg" xmlns:xlink="http://www.w3.org/1999/xlink" preserveAspectRatio="xMidYMid">
    <g>
        <path d="M233.19048,173.952855 L141.212573,173.952855 C131.217319,173.952855 122.813139,167.49225 119.713821,158.550649 C119.505787,157.980482 119.332425,157.400684 119.174474,156.815108 C119.193736,156.884452 119.209146,156.946092 119.209146,156.946092 C119.20722,156.946092 119.195662,156.897936 119.16099,156.770804 C119.132096,156.661009 119.122465,156.620558 119.122465,156.620558 C119.124391,156.620558 119.139801,156.684124 119.159064,156.751542 C118.276846,153.305501 118.147788,149.867164 118.872054,146.374893 C119.727304,141.861715 121.736371,137.211775 124.964748,132.679335 L173.920109,63.822073 L147.675104,27.0713613 C145.205666,23.6041313 142.252742,21.6933023 139.361457,21.6933023 C136.470173,21.6933023 133.517248,23.6041313 131.04781,27.0732876 L26.64181,173.952855 L0,173.952855 L0.0982381832,173.78142 L113.33797,14.4699065 C119.630992,5.63617498 128.597634,0.425698794 138.099771,0 L140.621217,0 C150.12528,0.425698794 159.089996,5.63424874 165.379166,14.4622016 L187.201526,45.0874736 L219.304224,0 L245.94796,0 C245.61472,1.0305378 200.533026,63.822073 200.533026,63.822073 L249.438305,132.679335 C252.666681,137.211775 254.675748,141.861715 255.530998,146.374893 C256.255264,149.867164 256.126206,153.305501 255.243989,156.751542 C255.263251,156.684124 255.278661,156.620558 255.280587,156.620558 C255.280587,156.620558 255.270956,156.661009 255.242062,156.770804 C255.20739,156.897936 255.195833,156.946092 255.195833,156.946092 C255.193906,156.946092 255.211243,156.884452 255.228579,156.815108 C255.070627,157.400684 254.897266,157.980482 254.689232,158.550649 C251.589913,167.49225 243.185733,173.952855 233.19048,173.952855 M228.247751,151.935945 L228.290128,151.945576 C230.688295,151.945576 232.63187,150.002001 232.63187,147.603833 C232.63187,146.70428 232.358344,145.868292 231.890268,145.176772 C231.830555,145.088165 187.673455,83.2038887 187.201526,82.5412625 C186.729598,83.2038887 142.572497,145.088165 142.512784,145.176772 C142.044708,145.868292 141.771182,146.70428 141.771182,147.603833 C141.771182,150.002001 143.714757,151.945576 146.112925,151.945576 L146.155302,151.935945 L146.195753,151.945576 L228.2073,151.945576 L228.247751,151.935945" fill="#32DAC4"></path>
    </g>
</svg>
